X: 14
M:C|
L:1/8
K:G
uD2|\
ud2|\
g2 (a/g/f/g/) a2 (b/a/^g/a/) | bagf g2 (dg) | ecAG FGAc | BG"_4"AF GFED |
g2 (a/g/f/g/) a2 (b/a/^g/a/) | bagf g2 (dg) | ecAG FGAc | BG"_4"AF G2  :|


